src/scalable/places/gnome-fs-loading-icon.svg

<?xml version="1.0" encoding="UTF-8" standalone="no"?>
<svg
   xmlns:dc="http://purl.org/dc/elements/1.1/"
   xmlns:cc="http://creativecommons.org/ns#"
   xmlns:rdf="http://www.w3.org/1999/02/22-rdf-syntax-ns#"
   xmlns:svg="http://www.w3.org/2000/svg"
   xmlns="http://www.w3.org/2000/svg"
   xmlns:xlink="http://www.w3.org/1999/xlink"
   xmlns:sodipodi="http://sodipodi.sourceforge.net/DTD/sodipodi-0.dtd"
   xmlns:inkscape="http://www.inkscape.org/namespaces/inkscape"
   width="64"
   height="64"
   viewBox="0 0 64 64"
   id="svg2"
   version="1.1"
   inkscape:version="0.92.4 (5da689c313, 2019-01-14)"
   sodipodi:docname="gnome-fs-loading-icon.svg">
  <metadata
     id="metadata12">
    <rdf:RDF>
      <cc:Work
         rdf:about="">
        <dc:format>image/svg+xml</dc:format>
        <dc:type
           rdf:resource="http://purl.org/dc/dcmitype/StillImage" />
        <dc:title></dc:title>
      </cc:Work>
    </rdf:RDF>
  </metadata>
  <defs
     id="defs10">
    <linearGradient
       id="linearGradient915"
       inkscape:collect="always">
      <stop
         id="stop911"
         offset="0"
         style="stop-color:#dcdcdc;stop-opacity:1" />
      <stop
         id="stop913"
         offset="1"
         style="stop-color:#d3d3d3;stop-opacity:1" />
    </linearGradient>
    <linearGradient
       inkscape:collect="always"
       id="linearGradient900">
      <stop
         style="stop-color:#dbdbdb;stop-opacity:1"
         offset="0"
         id="stop896" />
      <stop
         style="stop-color:#f3f3f3;stop-opacity:1"
         offset="1"
         id="stop898" />
    </linearGradient>
    <linearGradient
       inkscape:collect="always"
       id="linearGradient892">
      <stop
         style="stop-color:#000000;stop-opacity:1;"
         offset="0"
         id="stop888" />
      <stop
         style="stop-color:#000000;stop-opacity:0;"
         offset="1"
         id="stop890" />
    </linearGradient>
    <linearGradient
       inkscape:collect="always"
       xlink:href="#linearGradient892"
       id="linearGradient894"
       x1="11"
       y1="32"
       x2="53"
       y2="32"
       gradientUnits="userSpaceOnUse" />
    <linearGradient
       inkscape:collect="always"
       xlink:href="#linearGradient900"
       id="linearGradient902"
       x1="11"
       y1="32"
       x2="32"
       y2="32"
       gradientUnits="userSpaceOnUse" />
    <linearGradient
       inkscape:collect="always"
       xlink:href="#linearGradient915"
       id="linearGradient908"
       gradientUnits="userSpaceOnUse"
       x1="11"
       y1="32"
       x2="11"
       y2="11" />
  </defs>
  <sodipodi:namedview
     pagecolor="#ffffff"
     bordercolor="#666666"
     borderopacity="1"
     objecttolerance="10"
     gridtolerance="10"
     guidetolerance="10"
     inkscape:pageopacity="0"
     inkscape:pageshadow="2"
     inkscape:window-width="1366"
     inkscape:window-height="710"
     id="namedview8"
     showgrid="true"
     inkscape:zoom="16"
     inkscape:cx="27.008299"
     inkscape:cy="44.075773"
     inkscape:window-x="0"
     inkscape:window-y="0"
     inkscape:window-maximized="1"
     inkscape:current-layer="svg2"
     inkscape:snap-bbox="true"
     inkscape:bbox-nodes="true"
     inkscape:bbox-paths="true"
     inkscape:snap-bbox-edge-midpoints="true"
     inkscape:snap-bbox-midpoints="true"
     inkscape:object-paths="true"
     inkscape:snap-intersection-paths="true"
     inkscape:object-nodes="true"
     inkscape:snap-smooth-nodes="true"
     inkscape:snap-midpoints="true"
     showguides="true"
     inkscape:guide-bbox="true">
    <inkscape:grid
       type="xygrid"
       id="grid4134" />
    <sodipodi:guide
       position="32,52"
       orientation="1,0"
       id="guide4186"
       inkscape:locked="false" />
    <sodipodi:guide
       position="32,32"
       orientation="0,1"
       id="guide4188"
       inkscape:locked="false" />
  </sodipodi:namedview>
  <circle
     style="opacity:1;fill:#ffffff;fill-opacity:1;stroke:#000000;stroke-width:2;stroke-miterlimit:4;stroke-dasharray:none;stroke-opacity:0.19607843;paint-order:stroke markers fill"
     id="path13"
     cx="31.999998"
     cy="31.999958"
     r="26" />
  <circle
     r="26"
     cy="31.999958"
     cx="31.999998"
     id="circle837"
     style="opacity:1;fill:#ffffff;fill-opacity:1;stroke:none;stroke-width:2;stroke-miterlimit:4;stroke-dasharray:none;stroke-opacity:0.19607843;paint-order:stroke markers fill" />
  <rect
     style="opacity:1;fill:#333333;fill-opacity:1;stroke:none;stroke-width:2.21879983;stroke-miterlimit:4;stroke-dasharray:none;stroke-opacity:0.03921569;paint-order:stroke markers fill"
     id="rect826"
     width="1.9999999"
     height="15.999989"
     x="31"
     y="16.000057" />
  <rect
     style="opacity:1;fill:#c08589;fill-opacity:1;stroke:none;stroke-width:1.95603836;stroke-miterlimit:4;stroke-dasharray:none;stroke-opacity:0.03921569;paint-order:stroke markers fill"
     id="rect828"
     width="22"
     height="0.99999994"
     x="45.754826"
     y="-0.49998051"
     transform="rotate(45)" />
  <ellipse
     style="opacity:1;fill:#333333;fill-opacity:1;stroke:none;stroke-width:2.05977106;stroke-miterlimit:4;stroke-dasharray:none;stroke-opacity:0.03921569;paint-order:stroke markers fill"
     id="path830"
     cx="31.999998"
     cy="31.999958"
     rx="1.0000001"
     ry="1.0000006" />
  <path
     style="opacity:0.1;fill:url(#linearGradient894);fill-opacity:1;stroke:none;stroke-width:1.5;stroke-miterlimit:4;stroke-dasharray:none;stroke-opacity:0.03921569;paint-order:stroke markers fill"
     d="M 32 11 A 21.000002 21.000002 0 0 0 11 32 A 21.000002 21.000002 0 0 0 32 53 A 21.000002 21.000002 0 0 0 53 32 L 51 32 A 18.999958 18.999958 0 0 1 32 51 A 18.999958 18.999958 0 0 1 13 32 A 18.999958 18.999958 0 0 1 32 13 L 32 11 z "
     id="circle864" />
  <path
     style="opacity:1;fill:#d3d3d3;fill-opacity:1;stroke:none;stroke-width:2;stroke-miterlimit:4;stroke-dasharray:none;stroke-opacity:0.03921569;paint-order:markers stroke fill"
     d="m 32,9 5,3 -5,3 z"
     id="rect872"
     inkscape:connector-curvature="0"
     sodipodi:nodetypes="cccc" />
  <path
     style="opacity:1;fill:url(#linearGradient902);fill-opacity:1;stroke:none;stroke-width:1.5;stroke-miterlimit:4;stroke-dasharray:none;stroke-opacity:0.03921569;paint-order:stroke markers fill"
     d="M 32 11 A 21.000002 21.000002 0 0 0 11 32 A 21.000002 21.000002 0 0 0 32 53 L 32 51 A 18.999958 18.999958 0 0 1 13 32 A 18.999958 18.999958 0 0 1 32 13 L 32 11 z "
     id="path875" />
  <path
     style="opacity:1;fill:url(#linearGradient908);fill-opacity:1;stroke:none;stroke-width:1.5;stroke-miterlimit:4;stroke-dasharray:none;stroke-opacity:0.03921569;paint-order:stroke markers fill"
     d="M 32 11 A 21.000002 21.000002 0 0 0 11 32 L 13 32 A 18.999958 18.999958 0 0 1 32 13 L 32 11 z "
     id="path904" />
</svg>

<svg xmlns="http://www.w3.org/2000/svg" xmlns:xlink="http://www.w3.org/1999/xlink" width="64" height="64"><defs><linearGradient id="c"><stop offset="0" stop-color="#dcdcdc"/><stop offset="1" stop-color="#d3d3d3"/></linearGradient><linearGradient id="b"><stop offset="0" stop-color="#dbdbdb"/><stop offset="1" stop-color="#f3f3f3"/></linearGradient><linearGradient id="a"><stop offset="0"/><stop offset="1" stop-opacity="0"/></linearGradient><linearGradient xlink:href="#a" id="d" x1="11" y1="32" x2="53" y2="32" gradientUnits="userSpaceOnUse"/><linearGradient xlink:href="#b" id="e" x1="11" y1="32" x2="32" y2="32" gradientUnits="userSpaceOnUse"/><linearGradient xlink:href="#c" id="f" gradientUnits="userSpaceOnUse" x1="11" y1="32" x2="11" y2="11"/></defs><circle cx="32" cy="32" r="26" fill="#fff" stroke="#000" stroke-width="2" stroke-opacity=".196" paint-order="stroke markers fill"/><circle r="26" cy="32" cx="32" fill="#fff" paint-order="stroke markers fill"/><path fill="#333" paint-order="stroke markers fill" d="M31 16h2v16h-2z"/><path fill="#c08589" paint-order="stroke markers fill" d="M32.707 32l15.557 15.556-.708.708L32 32.707z"/><ellipse cx="32" cy="32" rx="1" ry="1" fill="#333" paint-order="stroke markers fill"/><path d="M32 11a21 21 0 0 0-21 21 21 21 0 0 0 21 21 21 21 0 0 0 21-21h-2a19 19 0 0 1-19 19 19 19 0 0 1-19-19 19 19 0 0 1 19-19v-2z" opacity=".1" fill="url(#d)" paint-order="stroke markers fill"/><path d="M32 9l5 3-5 3z" fill="#d3d3d3" paint-order="markers stroke fill"/><path d="M32 11a21 21 0 0 0-21 21 21 21 0 0 0 21 21v-2a19 19 0 0 1-19-19 19 19 0 0 1 19-19v-2z" fill="url(#e)" paint-order="stroke markers fill"/><path d="M32 11a21 21 0 0 0-21 21h2a19 19 0 0 1 19-19v-2z" fill="url(#f)" paint-order="stroke markers fill"/></svg>
